_inc/images/systems/logos/j2me.svg

<svg viewBox="0 0 264 128" xmlns="http://www.w3.org/2000/svg">
    <path style="stroke:none;fill-rule:nonzero;fill:#fff;fill-opacity:1" d="M264 98.604c-2.055 0-3.998.04-5.941-.02-1.151-.033-1.75-.62-1.983-1.794-.126-.626-.099-1.28-.219-1.907-.206-1.073-.792-1.367-1.75-.866-.559.32-1.084.68-1.577 1.086-5.555 4.335-11.743 5.668-18.569 3.995-5.456-1.334-9.002-5.802-9.401-11.556-.632-9.108 5.329-14.87 12.202-16.783 2.695-.754 5.562-.927 8.363-1.254 2.475-.293 4.97-.427 7.445-.66 1.377-.133 1.823-.613 1.703-1.967-.199-2.28-.266-4.608-.791-6.815-.852-3.62-3.433-5.454-7.046-5.821-5.416-.56-10.672.24-15.775 2.134-.406.153-.838.427-1.237.387-.36-.034-.865-.334-1.012-.654-.372-.853-.585-1.787-.865-2.687-.386-1.22-.126-1.907 1.038-2.34 6.367-2.368 12.848-4.168 19.72-3.508 2.176.187 4.325.634 6.401 1.321 5.083 1.753 7.465 5.727 8.742 10.795.612 2.407.506 4.734.519 7.095.053 10.115.02 20.237.02 30.359Zm-14.464-23.951c-3.034.067-6.048.213-8.988 1.1-3.859 1.174-6.041 3.661-6.441 7.762-.499 5.141 2.582 8.988 7.658 9.375 2.628.206 5.037-.634 7.385-1.694 2.768-1.24 4.545-3.341 4.817-6.381.266-2.987.227-6.008.273-9.015.007-.754-.506-1.147-1.271-1.147-1.144-.007-2.288 0-3.433 0Zm-81.249 3.581v17.883c0 2.08-.406 2.487-2.475 2.507-.606 0-1.211.02-1.817 0-2.155-.093-3.073-1-3.326-3.167-.067-.6-.313-1.174-.479-1.767-.619.28-1.331.447-1.85.853-3.439 2.694-7.265 4.508-11.616 5.101-4.352.594-8.463-.16-12.202-2.533-2.682-1.707-3.946-4.395-4.591-7.375-1.51-6.995.585-14.63 10.013-18.19a36.114 36.114 0 0 1 11.949-2.268c1.544-.04 3.081-.06 4.618-.1 1.33-.033 2.062-.493 2.342-1.667.758-3.24.572-6.387-1.125-9.328-1.537-2.661-4.045-3.594-6.913-3.961-4.73-.613-9.241.427-13.732 1.721-.805.226-1.597.506-2.395.78-.845.286-1.271-.087-1.477-.88-.18-.681-.346-1.367-.592-2.028-.606-1.627-.313-2.44 1.35-2.953 2.795-.874 5.602-1.741 8.443-2.408 5.389-1.26 10.799-1.467 16.188.1 6.014 1.741 9.521 6.315 9.607 12.616.033 2.847 0 5.688 0 8.535v8.535Zm-9.155 2.553h-.067c0-1.52.014-3.047 0-4.561-.013-1.273-.306-1.587-1.55-1.573-1.75.013-3.506-.027-5.249.127-2.103.18-4.238.353-6.281.846-4.338 1.054-6.374 3.341-6.893 7.548-.372 3.028.1 5.855 2.695 7.849 2.289 1.753 4.93 2.293 7.738 1.707 3.1-.647 5.715-2.347 8.25-4.141 1.144-.814 1.364-2.107 1.364-3.441-.007-1.453-.007-2.907-.007-4.361Zm39.653 8.435c1.324-3.967 2.815-7.888 3.946-11.909 1.836-6.568 3.506-13.189 5.103-19.817.545-2.287.698-4.674.958-7.035.186-1.66.339-1.9 2.022-1.913 2.229-.027 4.451-.027 6.667.04 1.191.033 1.49.487 1.224 1.653-3 13.11-6.081 26.199-10.938 38.788-.945 2.454-1.982 4.874-3.034 7.295-.818 1.88-1.776 2.353-3.819 2.3a150.944 150.944 0 0 0-7.371 0c-1.724.033-2.283-.293-2.801-1.96a91599.2 91599.2 0 0 1-14.338-46.056c-.1-.32-.18-.653-.233-.987-.113-.706.16-1.1.918-1.093 1.923 0 3.846-.014 5.762 0 1.909.013 3.286.973 3.925 2.787 1.045 2.961 2.096 5.921 2.988 8.942 2.601 8.808 5.123 17.643 7.684 26.458.246.834.625 1.627.945 2.441Zm-77.829-25.405c0 7.515.086 15.023-.034 22.531-.066 4.121-.186 8.269-.798 12.329-1.124 7.502-5.056 13.163-11.816 16.824-2.761 1.5-6.301-.46-7.232-2.507-.346-.754-.406-1.354.485-1.861 5.662-3.254 8.417-8.395 9.102-14.729.286-2.647.319-5.335.326-8.009.053-12.315.08-24.631.073-36.953 0-5.895-.093-11.776-.126-17.664-.013-3.067.625-3.694 3.692-3.587 1.278.04 2.555.12 3.826.273 1.437.18 1.989.74 2.222 2.187.107.741.153 1.481.133 2.227.014 9.642.014 19.291 0 28.939ZM62.247.012c.12.146.3.273.346.44 1.165 4.607 1.484 9.202-.173 13.782-1.191 3.281-3.14 6.048-5.602 8.469-4.091 4.027-8.23 8.001-12.295 12.055-1.364 1.361-2.581 2.861-3.825 4.328-3.899 4.581-4.658 9.655-2.096 15.103 1.271 2.687 2.814 5.241 4.218 7.861.166.307.293.641.432.967l-.292.234c-.4-.454-.792-.927-1.211-1.367a65.741 65.741 0 0 1-9.275-12.129c-2.022-3.401-2.069-6.802.166-10.016 1.597-2.28 3.36-4.527 5.396-6.408 4.012-3.707 8.29-7.134 12.409-10.722 1.936-1.68 3.885-3.374 5.628-5.247 3.793-4.094 5.616-9.082 6.028-14.616.04-.527-.126-1.067-.166-1.601-.027-.36 0-.727 0-1.093Zm0 0"/>
    <path style="stroke:none;fill-rule:nonzero;fill:#fff;fill-opacity:1" d="M73.285 25.443c-3.692 2.774-7.305 5.268-10.672 8.075-2.095 1.761-3.965 3.861-5.648 6.035-2.342 3.02-2.349 6.301-.293 9.555 1.257 2 2.555 3.981 3.719 6.034 1.231 2.167 2.142 4.475 1.763 7.055a6.596 6.596 0 0 1-.572 2.034c-1.583 3.114-4.045 5.401-6.873 7.315l-.233-.154c.173-.28.333-.573.519-.847 2.196-3.227 2.243-6.501.147-9.782-.719-1.14-1.597-2.18-2.389-3.273-1.783-2.448-3.32-5.028-3.912-8.055-.911-4.595.419-8.562 3.506-11.989 3.314-3.668 7.326-6.375 11.77-8.435 2.675-1.241 5.456-2.294 8.197-3.421.246-.1.545-.087.971-.147Zm15.908 85.23c.745.814.572 1.467-.013 1.894-1.377 1.013-2.735 2.127-4.265 2.847-3.779 1.76-7.831 2.701-11.916 3.427-8.616 1.534-17.332 2.041-26.054 2.307-9.175.274-18.336.087-27.485-.493-5.189-.333-10.332-1-15.349-2.42a14.45 14.45 0 0 1-3.14-1.347c-1.098-.627-1.271-1.581-.486-2.574a7.691 7.691 0 0 1 2.063-1.901c3.08-1.767 6.453-2.653 10.046-2.893-.332.153-.672.293-.998.453-.945.453-1.903.873-2.807 1.387-.746.413-1.231 1.067-1.158 1.987.073.92.699 1.42 1.47 1.627 2.469.653 4.93 1.42 7.439 1.814 11.31 1.727 22.681 2.027 34.084 1.34 7.399-.454 14.797-.9 22.182-1.54 4.697-.407 9.375-1.101 13.779-2.981 1.257-.547 2.322-1.254 2.608-2.934Zm-22.222-5.654c-3.453.86-6.873 1.907-10.366 2.554-8.682 1.627-17.365 1.446-25.947-.747a16.38 16.38 0 0 1-4.504-1.954c-1.97-1.234-1.903-2.947.026-4.281.759-.52 1.617-.9 2.628-1.453.087 2.573 1.697 3.2 3.606 3.4 8.55.934 17.186.72 25.682-.633 2.269-.367 4.085-.24 5.915 1.067.918.653 1.969 1.133 2.954 1.693Zm1.644-14.03c-3.846.814-7.672 1.761-11.531 2.441-7.631 1.32-15.309.88-22.98.32-3.712-.267-7.372-.754-10.865-2.134-1.024-.407-2.022-.813-2.175-2.114-.16-1.307.452-2.307 1.53-2.974.938-.58 1.936-1.053 2.981-1.627-.34 3.048.193 3.561 3.193 4.381 1.763.487 3.653.587 5.496.687 9.907.52 19.713-.473 29.48-2.034a3.036 3.036 0 0 1 1.863.407c1.052.64 2.003 1.454 3.008 2.207Zm4.051-16.096c-1.889 2.254-4.371 2.38-6.766 2.707-9.414 1.28-18.842 2.567-28.363 2.527-8.19-.033-16.387-.226-24.404-2.154a7.323 7.323 0 0 1-1.716-.58c-.346-.18-.832-.6-.812-.88.027-.42.346-1 .705-1.193 1.597-.867 3.2-1.774 4.91-2.368 2.828-.986 5.722-1.76 8.596-2.593.3-.094.646-.014 1.038.173-.605.287-1.231.567-1.843.854-1.131.533-2.269 1.04-3.373 1.627-.778.406-1.371 1.013-1.211 2.02.16 1.007.991 1.167 1.79 1.36 4.524 1.107 9.148 1.054 13.752 1.18 10.985.314 21.869-.886 32.747-2.12Zm-47.111 50.763c2.069 0 4.151-.127 6.214.02 10.033.693 20.059.847 30.093.067 8.582-.674 17.118-1.627 25.255-4.661 2.169-.814 4.232-1.921 6.341-2.894.233-.107.466-.22.698-.327l.207.24c-.759.674-1.451 1.427-2.276 2.007-3.899 2.714-8.316 4.121-12.907 5.041-10.925 2.174-21.956 2.988-33.073 2.847-6.82-.086-13.606-.466-20.279-2.02-.094-.02-.187-.06-.28-.087Zm54.23-34.193c.978-.76 1.976-1.514 2.934-2.274 2.329-1.86 4.638-3.767 6.175-6.361.845-1.421 1.616-3.014 1.949-4.621.951-4.588-1.836-8.262-6.547-8.915-.831-.114-1.676-.154-2.508-.234l-.04-.286c1.238-.167 2.462-.454 3.699-.48 3.26-.074 5.975 1.247 8.164 3.6 2.242 2.407 2.681 6.282 1.011 9.275a15.763 15.763 0 0 1-2.548 3.488c-3.001 3-6.64 5.267-10.645 6.634-.499.174-1.025.274-1.544.407Zm0 0"/>
</svg>

<?xml version="1.0" encoding="utf-8"?>
<svg version="1.1" viewBox="0 0 264 128" xmlns="http://www.w3.org/2000/svg">
  <path style=" stroke:none;fill-rule:nonzero;fill:rgb(100%,100%,100%);fill-opacity:1;" d="M 264 98.604 C 261.945 98.604 260.002 98.644 258.059 98.584 C 256.908 98.551 256.309 97.964 256.076 96.79 C 255.95 96.164 255.977 95.51 255.857 94.883 C 255.651 93.81 255.065 93.516 254.107 94.017 C 253.548 94.337 253.023 94.697 252.53 95.103 C 246.975 99.438 240.787 100.771 233.961 99.098 C 228.505 97.764 224.959 93.296 224.56 87.542 C 223.928 78.434 229.889 72.672 236.762 70.759 C 239.457 70.005 242.324 69.832 245.125 69.505 C 247.6 69.212 250.095 69.078 252.57 68.845 C 253.947 68.712 254.393 68.232 254.273 66.878 C 254.074 64.598 254.007 62.27 253.482 60.063 C 252.63 56.443 250.049 54.609 246.436 54.242 C 241.02 53.682 235.764 54.482 230.661 56.376 C 230.255 56.529 229.823 56.803 229.424 56.763 C 229.064 56.729 228.559 56.429 228.412 56.109 C 228.04 55.256 227.827 54.322 227.547 53.422 C 227.161 52.202 227.421 51.515 228.585 51.082 C 234.952 48.714 241.433 46.914 248.305 47.574 C 250.481 47.761 252.63 48.208 254.706 48.895 C 259.789 50.648 262.171 54.622 263.448 59.69 C 264.06 62.097 263.954 64.424 263.967 66.785 C 264.02 76.9 263.987 87.022 263.987 97.144 Z M 249.536 74.653 C 246.502 74.72 243.488 74.866 240.548 75.753 C 236.689 76.927 234.507 79.414 234.107 83.515 C 233.608 88.656 236.689 92.503 241.765 92.89 C 244.393 93.096 246.802 92.256 249.15 91.196 C 251.918 89.956 253.695 87.855 253.967 84.815 C 254.233 81.828 254.194 78.807 254.24 75.8 C 254.247 75.046 253.734 74.653 252.969 74.653 C 251.825 74.646 250.681 74.653 249.536 74.653 Z M 249.536 74.653"/>
  <path style=" stroke:none;fill-rule:nonzero;fill:rgb(100%,100%,100%);fill-opacity:1;" d="M 168.287 78.234 C 168.287 84.195 168.287 90.156 168.287 96.117 C 168.287 98.197 167.881 98.604 165.812 98.624 C 165.206 98.624 164.601 98.644 163.995 98.624 C 161.84 98.531 160.922 97.624 160.669 95.457 C 160.602 94.857 160.356 94.283 160.19 93.69 C 159.571 93.97 158.859 94.137 158.34 94.543 C 154.901 97.237 151.075 99.051 146.724 99.644 C 142.372 100.238 138.261 99.484 134.522 97.111 C 131.84 95.404 130.576 92.716 129.931 89.736 C 128.421 82.741 130.516 75.106 139.944 71.546 C 143.776 70.119 147.815 69.352 151.893 69.278 C 153.437 69.238 154.974 69.218 156.511 69.178 C 157.841 69.145 158.573 68.685 158.853 67.511 C 159.611 64.271 159.425 61.124 157.728 58.183 C 156.191 55.522 153.683 54.589 150.815 54.222 C 146.085 53.609 141.574 54.649 137.083 55.943 C 136.278 56.169 135.486 56.449 134.688 56.723 C 133.843 57.009 133.417 56.636 133.211 55.843 C 133.031 55.162 132.865 54.476 132.619 53.815 C 132.013 52.188 132.306 51.375 133.969 50.862 C 136.764 49.988 139.571 49.121 142.412 48.454 C 147.801 47.194 153.211 46.987 158.6 48.554 C 164.614 50.295 168.121 54.869 168.207 61.17 C 168.24 64.017 168.207 66.858 168.207 69.705 L 168.207 78.24 Z M 159.132 80.787 L 159.065 80.787 C 159.065 79.267 159.079 77.74 159.065 76.226 C 159.052 74.953 158.759 74.639 157.515 74.653 C 155.765 74.666 154.009 74.626 152.266 74.78 C 150.163 74.96 148.028 75.133 145.985 75.626 C 141.647 76.68 139.611 78.967 139.092 83.174 C 138.72 86.202 139.192 89.029 141.787 91.023 C 144.076 92.776 146.717 93.316 149.525 92.73 C 152.625 92.083 155.24 90.383 157.775 88.589 C 158.919 87.775 159.139 86.482 159.139 85.148 C 159.132 83.695 159.132 82.241 159.132 80.787 Z M 159.132 80.787"/>
  <path style=" stroke:none;fill-rule:nonzero;fill:rgb(100%,100%,100%);fill-opacity:1;" d="M 198.785 89.222 C 200.109 85.255 201.6 81.334 202.731 77.313 C 204.567 70.745 206.237 64.124 207.834 57.496 C 208.379 55.209 208.532 52.822 208.792 50.461 C 208.978 48.801 209.131 48.561 210.814 48.548 C 213.043 48.521 215.265 48.521 217.481 48.588 C 218.672 48.621 218.971 49.075 218.705 50.241 C 215.705 63.351 212.624 76.44 207.767 89.029 C 206.822 91.483 205.785 93.903 204.733 96.324 C 203.915 98.204 202.957 98.677 200.914 98.624 C 198.459 98.557 195.998 98.571 193.543 98.624 C 191.819 98.657 191.26 98.331 190.742 96.664 C 185.958 81.314 181.181 65.964 176.404 50.608 C 176.304 50.288 176.224 49.955 176.171 49.621 C 176.058 48.915 176.331 48.521 177.089 48.528 C 179.012 48.528 180.935 48.514 182.851 48.528 C 184.76 48.541 186.137 49.501 186.776 51.315 C 187.821 54.276 188.872 57.236 189.764 60.257 C 192.365 69.065 194.887 77.9 197.448 86.715 C 197.694 87.549 198.073 88.342 198.393 89.156 Z M 198.785 89.222"/>
  <path style=" stroke:none;fill-rule:nonzero;fill:rgb(100%,100%,100%);fill-opacity:1;" d="M 120.956 63.817 C 120.956 71.332 121.042 78.84 120.922 86.348 C 120.856 90.469 120.736 94.617 120.124 98.677 C 119 106.179 115.068 111.84 108.308 115.501 C 105.547 117.001 102.007 115.041 101.076 112.994 C 100.73 112.24 100.67 111.64 101.561 111.133 C 107.223 107.879 109.978 102.738 110.663 96.404 C 110.949 93.757 110.982 91.069 110.989 88.395 C 111.042 76.08 111.069 63.764 111.062 51.442 C 111.062 45.547 110.969 39.666 110.936 33.778 C 110.923 30.711 111.561 30.084 114.628 30.191 C 115.906 30.231 117.183 30.311 118.454 30.464 C 119.891 30.644 120.443 31.204 120.676 32.651 C 120.783 33.392 120.829 34.132 120.809 34.878 C 120.823 44.52 120.823 54.169 120.809 63.817 Z M 120.956 63.817"/>
  <path style=" stroke:none;fill-rule:nonzero;fill:rgb(100%,100%,100%);fill-opacity:1;" d="M 62.247 0.012 C 62.367 0.158 62.547 0.285 62.593 0.452 C 63.758 5.059 64.077 9.654 62.42 14.234 C 61.229 17.515 59.28 20.282 56.818 22.703 C 52.727 26.73 48.588 30.704 44.523 34.758 C 43.159 36.119 41.942 37.619 40.698 39.086 C 36.799 43.667 36.04 48.741 38.602 54.189 C 39.873 56.876 41.416 59.43 42.82 62.05 C 42.986 62.357 43.113 62.691 43.252 63.017 L 42.96 63.251 C 42.56 62.797 42.168 62.324 41.749 61.884 C 38.196 58.216 35.089 54.149 32.474 49.755 C 30.452 46.354 30.405 42.953 32.64 39.739 C 34.237 37.459 36 35.212 38.036 33.331 C 42.048 29.624 46.326 26.197 50.445 22.609 C 52.381 20.929 54.33 19.235 56.073 17.362 C 59.866 13.268 61.689 8.28 62.101 2.746 C 62.141 2.219 61.975 1.679 61.935 1.145 C 61.908 0.785 61.935 0.418 61.935 0.052 Z M 62.247 0.012"/>
  <path style=" stroke:none;fill-rule:nonzero;fill:rgb(100%,100%,100%);fill-opacity:1;" d="M 73.285 25.443 C 69.593 28.217 65.98 30.711 62.613 33.518 C 60.518 35.279 58.648 37.379 56.965 39.553 C 54.623 42.573 54.616 45.854 56.672 49.108 C 57.929 51.108 59.227 53.089 60.391 55.142 C 61.622 57.309 62.533 59.617 62.154 62.197 C 62.074 62.904 61.881 63.584 61.582 64.231 C 59.999 67.345 57.537 69.632 54.709 71.546 L 54.476 71.392 C 54.649 71.112 54.809 70.819 54.995 70.545 C 57.191 67.318 57.238 64.044 55.142 60.763 C 54.423 59.623 53.545 58.583 52.753 57.49 C 50.97 55.042 49.433 52.462 48.841 49.435 C 47.93 44.84 49.26 40.873 52.347 37.446 C 55.661 33.778 59.673 31.071 64.117 29.011 C 66.792 27.77 69.573 26.717 72.314 25.59 C 72.56 25.49 72.859 25.503 73.285 25.443 Z M 73.285 25.443"/>
  <path style=" stroke:none;fill-rule:nonzero;fill:rgb(100%,100%,100%);fill-opacity:1;" d="M 89.193 110.673 C 89.938 111.487 89.765 112.14 89.18 112.567 C 87.803 113.58 86.445 114.694 84.915 115.414 C 81.136 117.174 77.084 118.115 72.999 118.841 C 64.383 120.375 55.667 120.882 46.945 121.148 C 37.77 121.422 28.609 121.235 19.46 120.655 C 14.271 120.322 9.128 119.655 4.111 118.235 C 3.014 117.908 1.956 117.461 0.971 116.888 C -0.127 116.261 -0.3 115.307 0.485 114.314 C 1.051 113.56 1.749 112.914 2.548 112.413 C 5.628 110.646 9.001 109.76 12.594 109.52 C 12.262 109.673 11.922 109.813 11.596 109.973 C 10.651 110.426 9.693 110.846 8.789 111.36 C 8.043 111.773 7.558 112.427 7.631 113.347 C 7.704 114.267 8.33 114.767 9.101 114.974 C 11.57 115.627 14.031 116.394 16.54 116.788 C 27.85 118.515 39.221 118.815 50.624 118.128 C 58.023 117.674 65.421 117.228 72.806 116.588 C 77.503 116.181 82.181 115.487 86.585 113.607 C 87.842 113.06 88.907 112.353 89.193 110.673 Z M 89.193 110.673"/>
  <path style=" stroke:none;fill-rule:nonzero;fill:rgb(100%,100%,100%);fill-opacity:1;" d="M 66.971 105.019 C 63.518 105.879 60.098 106.926 56.605 107.573 C 47.923 109.2 39.24 109.019 30.658 106.826 C 29.068 106.406 27.551 105.746 26.154 104.872 C 24.184 103.638 24.251 101.925 26.18 100.591 C 26.939 100.071 27.797 99.691 28.808 99.138 C 28.895 101.711 30.505 102.338 32.414 102.538 C 40.964 103.472 49.6 103.258 58.096 101.905 C 60.365 101.538 62.181 101.665 64.011 102.972 C 64.929 103.625 65.98 104.105 66.965 104.665 Z M 66.971 105.019"/>
  <path style=" stroke:none;fill-rule:nonzero;fill:rgb(100%,100%,100%);fill-opacity:1;" d="M 68.615 90.989 C 64.769 91.803 60.943 92.75 57.084 93.43 C 49.453 94.75 41.775 94.31 34.104 93.75 C 30.392 93.483 26.732 92.996 23.239 91.616 C 22.215 91.209 21.217 90.803 21.064 89.502 C 20.904 88.195 21.516 87.195 22.594 86.528 C 23.532 85.948 24.53 85.475 25.575 84.901 C 25.235 87.949 25.768 88.462 28.768 89.282 C 30.531 89.769 32.421 89.869 34.264 89.969 C 44.171 90.489 53.977 89.496 63.744 87.935 C 64.396 87.869 65.048 88.009 65.607 88.342 C 66.659 88.982 67.61 89.796 68.615 90.549 Z M 68.615 90.989"/>
  <path style=" stroke:none;fill-rule:nonzero;fill:rgb(100%,100%,100%);fill-opacity:1;" d="M 72.666 74.893 C 70.777 77.147 68.295 77.273 65.9 77.6 C 56.486 78.88 47.058 80.167 37.537 80.127 C 29.347 80.094 21.15 79.901 13.133 77.973 C 12.534 77.853 11.962 77.653 11.417 77.393 C 11.071 77.213 10.585 76.793 10.605 76.513 C 10.632 76.093 10.951 75.513 11.31 75.32 C 12.907 74.453 14.51 73.546 16.22 72.952 C 19.048 71.966 21.942 71.192 24.816 70.359 C 25.116 70.265 25.462 70.345 25.854 70.532 C 25.249 70.819 24.623 71.099 24.011 71.386 C 22.88 71.919 21.742 72.426 20.638 73.013 C 19.86 73.419 19.267 74.026 19.427 75.033 C 19.587 76.04 20.418 76.2 21.217 76.393 C 25.741 77.5 30.365 77.447 34.969 77.573 C 45.954 77.887 56.838 76.687 67.716 75.453 Z M 72.666 74.893"/>
  <path style=" stroke:none;fill-rule:nonzero;fill:rgb(100%,100%,100%);fill-opacity:1;" d="M 25.555 125.656 C 27.624 125.656 29.706 125.529 31.769 125.676 C 41.802 126.369 51.828 126.523 61.862 125.743 C 70.444 125.069 78.98 124.116 87.117 121.082 C 89.286 120.268 91.349 119.161 93.458 118.188 C 93.691 118.081 93.924 117.968 94.156 117.861 L 94.363 118.101 C 93.604 118.775 92.912 119.528 92.087 120.108 C 88.188 122.822 83.771 124.229 79.18 125.149 C 68.255 127.323 57.224 128.137 46.107 127.996 C 39.287 127.91 32.501 127.53 25.828 125.976 C 25.734 125.956 25.641 125.916 25.548 125.889 Z M 25.555 125.656"/>
  <path style=" stroke:none;fill-rule:nonzero;fill:rgb(100%,100%,100%);fill-opacity:1;" d="M 79.785 91.463 C 80.763 90.703 81.761 89.949 82.719 89.189 C 85.048 87.329 87.357 85.422 88.894 82.828 C 89.739 81.407 90.51 79.814 90.843 78.207 C 91.794 73.619 89.007 69.945 84.296 69.292 C 83.465 69.178 82.62 69.138 81.788 69.058 L 81.748 68.772 C 82.986 68.605 84.21 68.318 85.447 68.292 C 88.707 68.218 91.422 69.539 93.611 71.892 C 95.853 74.299 96.292 78.174 94.622 81.167 C 93.937 82.441 93.079 83.615 92.074 84.655 C 89.073 87.655 85.434 89.922 81.429 91.289 C 80.93 91.463 80.404 91.563 79.885 91.696 Z M 79.785 91.463"/>
</svg>
